Obsidian/actions/16s/view-paged.svg

<svg height="16" viewBox="0 0 16 16" width="16" xmlns="http://www.w3.org/2000/svg"><path d="m1 .03125v13h2c-.00041-3.6761.00009-7.3514438 0-11.0273438 2.7159.005 9 0 9 0s0-1.5218562 0-1.9726562c-3.6665.00027-7.3341-.00093-11 0zm3 3v13h11v-13zm2 1.9726562h7v8.9999998h-7z" fill="#bebebe"/></svg>

<svg xmlns="http://www.w3.org/2000/svg" width="16" height="16" viewBox="0 0 16 16">
 <defs>
  <style id="current-color-scheme" type="text/css">
   .ColorScheme-Text { color:#bebebe; } .ColorScheme-Highlight { color:#4285f4; }
  </style>
 </defs>
 <path style="fill:currentColor" class="ColorScheme-Text" d="M 1 0.03125 L 1 13.03125 L 3 13.03125 C 2.99959 9.35515 3.00009 5.6798062 3 2.0039062 C 5.7159 2.0089062 12 2.0039062 12 2.0039062 C 12 2.0039062 12 0.48205 12 0.03125 C 8.3335 0.03152 4.6659 0.03032 1 0.03125 z M 4 3.03125 L 4 16.03125 L 15 16.03125 L 15 3.03125 L 4 3.03125 z M 6 5.0039062 L 13 5.0039062 L 13 14.003906 L 6 14.003906 L 6 5.0039062 z"/>
</svg>
